icons/lua/lua-plain-wordmark.svg

<svg version="1.1" id="lua-plain-wordmark-Ebene_1" xmlns="http://www.w3.org/2000/svg" viewBox="0 0 128 128" xml:space="preserve"><style/><path fill="navy" d="M127.3 15.1c0-7.9-6.4-14.3-14.3-14.3S98.6 7.1 98.6 15.1 105 29.4 113 29.4s14.3-6.4 14.3-14.3"/><g fill="navy"><path d="M64 15.1c-27 0-49 21.9-49 49s21.9 49 49 49 49-21.9 49-49-22-49-49-49zM50.7 88.5h-20V56.4h4.1v28.5h15.9v3.6zm22.3 0h-3.3v-3.2c-2.2 3-4.3 4.2-7.7 4.2-4.5 0-7.4-2.5-7.4-6.3V65.4h3.7v16.3c0 2.8 1.9 4.5 4.8 4.5 3.8 0 6.3-3.1 6.3-7.8v-13H73v23.1zm-3-44.8c0-7.9 6.4-14.3 14.3-14.3s14.3 6.4 14.3 14.3S92.2 58 84.3 58 70 51.6 70 43.7zm29.8 45.4c-1.2.3-1.8.4-2.5.4-2.4 0-3.5-1.1-3.8-3.4-2.6 2.4-4.9 3.4-7.8 3.4-4.7 0-7.6-2.6-7.6-6.8 0-3 1.4-5.1 4.1-6.2 1.4-.6 2.2-.7 7.4-1.4 2.9-.4 3.8-1 3.8-2.6v-1c0-2.2-1.9-3.4-5.2-3.4-3.4 0-5.1 1.3-5.4 4.1h-3.7c.1-2.3.5-3.6 1.6-4.8 1.5-1.7 4.3-2.7 7.7-2.7 5.7 0 8.7 2.2 8.7 6.3v13.6c0 1.1.7 1.8 2 1.8.2 0 .4 0 .8-.1l-.1 2.8z"/><path d="M81.9 82.6c0 2.3 1.7 3.7 4.5 3.7 2.2 0 4-.7 5.5-2.1 1.1-1 1.5-1.8 1.5-3v-4.1c-1.2.6-2 .7-5.9 1.3-3.9.5-5.6 1.8-5.6 4.2z"/></g><path fill="navy" d="M66.3 128l-.1-1.5c1.8-.1 3.6-.2 5.4-.4l.2 1.5c-1.8.2-3.7.3-5.5.4zm-5.6 0c-1.9-.1-3.7-.3-5.6-.5l.2-1.5c1.8.2 3.6.4 5.4.5v1.5zm16.6-1.4l-.3-1.4c1.8-.4 3.5-.8 5.3-1.4l.4 1.4c-1.7.6-3.5 1.1-5.4 1.4zm-27.7-.2c-1.8-.4-3.6-.9-5.4-1.5l.5-1.4c1.7.6 3.5 1 5.3 1.5l-.4 1.4zm38.4-3l-.6-1.4c1.7-.7 3.3-1.4 5-2.3l.7 1.3c-1.7.9-3.4 1.7-5.1 2.4zm-49-.4c-1.7-.7-3.4-1.5-5-2.4l.7-1.3c1.6.9 3.3 1.6 4.9 2.4L39 123zm59-4.7l-.8-1.2c1.5-1 3-2 4.5-3.1l.9 1.2c-1.5 1.1-3.1 2.1-4.6 3.1zm-68.8-.6c-1.6-1-3.1-2.1-4.5-3.2l.9-1.2c1.4 1.1 2.9 2.2 4.4 3.2l-.8 1.2zm77.7-6.1l-1-1.1c1.3-1.2 2.7-2.5 3.9-3.8l1.1 1c-1.3 1.3-2.7 2.6-4 3.9zm-86.5-.7c-1.4-1.3-2.7-2.6-3.9-4l1.1-1c1.2 1.3 2.5 2.7 3.8 3.9l-1 1.1zm94.1-7.5l-1.2-.9c1.1-1.4 2.2-2.9 3.2-4.4l1.2.8c-1 1.5-2.1 3.1-3.2 4.5zm-101.6-.8c-1.1-1.5-2.2-3-3.2-4.6l1.2-.8c1 1.5 2 3 3.1 4.5l-1.1.9zm107.7-8.5l-1.3-.7c.9-1.6 1.6-3.3 2.4-4.9l1.3.5-2.4 5.1zM7 93.1c-.8-1.7-1.6-3.4-2.3-5.1l1.3-.5c.7 1.7 1.4 3.3 2.3 5l-1.3.6zm117.9-9.3l-1.4-.5c.6-1.7 1-3.5 1.5-5.3l1.4.3c-.4 1.9-.9 3.7-1.5 5.5zm-122.1-1c-.5-1.8-1-3.6-1.4-5.4l1.4-.3c.4 1.8.8 3.5 1.4 5.3l-1.4.4zm124.6-9.9l-1.5-.2c.2-1.8.4-3.6.5-5.4l1.5.1c0 1.8-.2 3.7-.5 5.5zM.5 71.9C.2 70 .1 68.2 0 66.3l1.5-.1c.1 1.8.2 3.6.4 5.4l-1.4.3zm126-10.1c-.1-1.8-.2-3.6-.4-5.4l1.5-.2c.2 1.8.4 3.7.4 5.6h-1.5zm-125-1L0 60.7c.1-1.9.3-3.7.5-5.6l1.5.3c-.2 1.8-.4 3.6-.5 5.4zM125.2 51c-.4-1.8-.8-3.6-1.4-5.3l1.4-.4c.5 1.8 1 3.6 1.4 5.4l-1.4.3zM3 50l-1.4-.3c.4-1.8.9-3.6 1.5-5.4l1.4.5C3.9 46.5 3.4 48.2 3 50zm119-9.4c-.7-1.7-1.4-3.4-2.3-5l1.3-.7c.8 1.7 1.6 3.4 2.3 5.1l-1.3.6zm-115.6-1L5 39.1c.7-1.7 1.5-3.4 2.4-5l1.3.7c-.8 1.5-1.6 3.2-2.3 4.8zm5.1-9.6l-1.2-.8c1-1.6 2.1-3.1 3.2-4.5l1.2.9c-1.2 1.4-2.2 2.9-3.2 4.4zm6.7-8.6l-1.1-1c1.3-1.4 2.6-2.7 4-3.9l1 1.1c-1.4 1.2-2.7 2.5-3.9 3.8zm8.1-7.3l-.9-1.2c1.5-1.1 3-2.2 4.6-3.2l.8 1.2c-1.6 1.1-3.1 2.1-4.5 3.2zm67-5.4c-1.6-.8-3.3-1.6-4.9-2.3l.5-1.4c1.7.7 3.4 1.5 5 2.4l-.6 1.3zm-57.8-.4L34.8 7c1.7-.8 3.4-1.6 5.1-2.3l.6 1.3c-1.7.7-3.4 1.5-5 2.3zm47.7-3.8c-1.7-.6-3.5-1-5.3-1.4l.3-1.4c1.8.4 3.6.9 5.4 1.5l-.4 1.3zm-37.6-.3l-.4-1.4c1.8-.5 3.6-1 5.4-1.4l.3 1.4c-1.8.4-3.6.9-5.3 1.4zm27-2.2c-1.8-.2-3.6-.4-5.4-.5l.1-1.5c1.9.1 3.7.3 5.6.5L72.6 2zm-16.3-.1L56.1.4c1.8-.2 3.7-.4 5.6-.4l.1 1.5c-1.9 0-3.7.2-5.5.4z"/></svg>

<?xml version="1.0" encoding="utf-8"?>
<!-- Generator: Adobe Illustrator 25.0.0, SVG Export Plug-In . SVG Version: 6.00 Build 0)  -->
<svg version="1.1" id="Ebene_1" xmlns="http://www.w3.org/2000/svg" xmlns:xlink="http://www.w3.org/1999/xlink" width="128px" height="128px"
	 viewBox="0 0 128 128" xml:space="preserve">
<style type="text/css">
</style>
<path fill="#000080" d="M127.3,15.1c0-7.9-6.4-14.3-14.3-14.3S98.6,7.1,98.6,15.1S105,29.4,113,29.4S127.3,23,127.3,15.1"/>
<g>
	<path fill="#000080" d="M64,15.1c-27,0-49,21.9-49,49s21.9,49,49,49s49-21.9,49-49S91,15.1,64,15.1z M50.7,88.5h-20V56.4h4.1v28.5
		h15.9L50.7,88.5L50.7,88.5z M73,88.5h-3.3v-3.2c-2.2,3-4.3,4.2-7.7,4.2c-4.5,0-7.4-2.5-7.4-6.3V65.4h3.7v16.3
		c0,2.8,1.9,4.5,4.8,4.5c3.8,0,6.3-3.1,6.3-7.8V65.4H73V88.5z M70,43.7c0-7.9,6.4-14.3,14.3-14.3s14.3,6.4,14.3,14.3
		s-6.4,14.3-14.3,14.3S70,51.6,70,43.7z M99.8,89.1c-1.2,0.3-1.8,0.4-2.5,0.4c-2.4,0-3.5-1.1-3.8-3.4c-2.6,2.4-4.9,3.4-7.8,3.4
		c-4.7,0-7.6-2.6-7.6-6.8c0-3,1.4-5.1,4.1-6.2c1.4-0.6,2.2-0.7,7.4-1.4c2.9-0.4,3.8-1,3.8-2.6v-1c0-2.2-1.9-3.4-5.2-3.4
		c-3.4,0-5.1,1.3-5.4,4.1h-3.7c0.1-2.3,0.5-3.6,1.6-4.8c1.5-1.7,4.3-2.7,7.7-2.7c5.7,0,8.7,2.2,8.7,6.3v13.6c0,1.1,0.7,1.8,2,1.8
		c0.2,0,0.4,0,0.8-0.1L99.8,89.1L99.8,89.1z"/>
	<path fill="#000080" d="M81.9,82.6c0,2.3,1.7,3.7,4.5,3.7c2.2,0,4-0.7,5.5-2.1c1.1-1,1.5-1.8,1.5-3v-4.1c-1.2,0.6-2,0.7-5.9,1.3
		C83.6,78.9,81.9,80.2,81.9,82.6z"/>
</g>
<path fill="#000080" d="M66.3,128l-0.1-1.5c1.8-0.1,3.6-0.2,5.4-0.4l0.2,1.5C70,127.8,68.1,127.9,66.3,128z M60.7,128
	c-1.9-0.1-3.7-0.3-5.6-0.5l0.2-1.5c1.8,0.2,3.6,0.4,5.4,0.5L60.7,128z M77.3,126.6l-0.3-1.4c1.8-0.4,3.5-0.8,5.3-1.4l0.4,1.4
	C81,125.8,79.2,126.3,77.3,126.6z M49.6,126.4c-1.8-0.4-3.6-0.9-5.4-1.5l0.5-1.4c1.7,0.6,3.5,1,5.3,1.5L49.6,126.4z M88,123.4
	l-0.6-1.4c1.7-0.7,3.3-1.4,5-2.3l0.7,1.3C91.4,121.9,89.7,122.7,88,123.4z M39,123c-1.7-0.7-3.4-1.5-5-2.4l0.7-1.3
	c1.6,0.9,3.3,1.6,4.9,2.4L39,123z M98,118.3l-0.8-1.2c1.5-1,3-2,4.5-3.1l0.9,1.2C101.1,116.3,99.5,117.3,98,118.3z M29.2,117.7
	c-1.6-1-3.1-2.1-4.5-3.2l0.9-1.2c1.4,1.1,2.9,2.2,4.4,3.2L29.2,117.7z M106.9,111.6l-1-1.1c1.3-1.2,2.7-2.5,3.9-3.8l1.1,1
	C109.6,109,108.2,110.3,106.9,111.6z M20.4,110.9c-1.4-1.3-2.7-2.6-3.9-4l1.1-1c1.2,1.3,2.5,2.7,3.8,3.9L20.4,110.9z M114.5,103.4
	l-1.2-0.9c1.1-1.4,2.2-2.9,3.2-4.4l1.2,0.8C116.7,100.4,115.6,102,114.5,103.4z M12.9,102.6c-1.1-1.5-2.2-3-3.2-4.6l1.2-0.8
	c1,1.5,2,3,3.1,4.5L12.9,102.6z M120.6,94.1l-1.3-0.7c0.9-1.6,1.6-3.3,2.4-4.9L123,89C122.2,90.7,121.4,92.4,120.6,94.1z M7,93.1
	c-0.8-1.7-1.6-3.4-2.3-5.1L6,87.5c0.7,1.7,1.4,3.3,2.3,5L7,93.1z M124.9,83.8l-1.4-0.5c0.6-1.7,1-3.5,1.5-5.3l1.4,0.3
	C126,80.2,125.5,82,124.9,83.8z M2.8,82.8c-0.5-1.8-1-3.6-1.4-5.4l1.4-0.3c0.4,1.8,0.8,3.5,1.4,5.3L2.8,82.8z M127.4,72.9l-1.5-0.2
	c0.2-1.8,0.4-3.6,0.5-5.4l1.5,0.1C127.9,69.2,127.7,71.1,127.4,72.9z M0.5,71.9C0.2,70,0.1,68.2,0,66.3l1.5-0.1
	c0.1,1.8,0.2,3.6,0.4,5.4L0.5,71.9z M126.5,61.8c-0.1-1.8-0.2-3.6-0.4-5.4l1.5-0.2c0.2,1.8,0.4,3.7,0.4,5.6L126.5,61.8z M1.5,60.8
	l-1.5-0.1c0.1-1.9,0.3-3.7,0.5-5.6L2,55.4C1.8,57.2,1.6,59,1.5,60.8z M125.2,51c-0.4-1.8-0.8-3.6-1.4-5.3l1.4-0.4
	c0.5,1.8,1,3.6,1.4,5.4L125.2,51z M3,50l-1.4-0.3c0.4-1.8,0.9-3.6,1.5-5.4l1.4,0.5C3.9,46.5,3.4,48.2,3,50z M122,40.6
	c-0.7-1.7-1.4-3.4-2.3-5l1.3-0.7c0.8,1.7,1.6,3.4,2.3,5.1L122,40.6z M6.4,39.6L5,39.1c0.7-1.7,1.5-3.4,2.4-5l1.3,0.7
	C7.9,36.3,7.1,38,6.4,39.6z M11.5,30l-1.2-0.8c1-1.6,2.1-3.1,3.2-4.5l1.2,0.9C13.5,27,12.5,28.5,11.5,30z M18.2,21.4l-1.1-1
	c1.3-1.4,2.6-2.7,4-3.9l1,1.1C20.7,18.8,19.4,20.1,18.2,21.4z M26.3,14.1l-0.9-1.2c1.5-1.1,3-2.2,4.6-3.2l0.8,1.2
	C29.2,12,27.7,13,26.3,14.1z M93.3,8.7c-1.6-0.8-3.3-1.6-4.9-2.3L88.9,5c1.7,0.7,3.4,1.5,5,2.4L93.3,8.7z M35.5,8.3L34.8,7
	c1.7-0.8,3.4-1.6,5.1-2.3L40.5,6C38.8,6.7,37.1,7.5,35.5,8.3z M83.2,4.5c-1.7-0.6-3.5-1-5.3-1.4l0.3-1.4c1.8,0.4,3.6,0.9,5.4,1.5
	L83.2,4.5z M45.6,4.2l-0.4-1.4c1.8-0.5,3.6-1,5.4-1.4l0.3,1.4C49.1,3.2,47.3,3.7,45.6,4.2z M72.6,2c-1.8-0.2-3.6-0.4-5.4-0.5
	l0.1-1.5c1.9,0.1,3.7,0.3,5.6,0.5L72.6,2z M56.3,1.9l-0.2-1.5c1.8-0.2,3.7-0.4,5.6-0.4l0.1,1.5C59.9,1.5,58.1,1.7,56.3,1.9z"/>
</svg>
